X: 2
T: The Boston-Sligo
R: reel
M: 4/4
L: 1/8
K: Dmaj
A|BAFA B2dB|BAFD EDB,D|BAFA B2dB|AFDF E3A|
BAFA B2dB|BAFD EDB,E|DB,A,B, DEFA|BFAF D3:|
|:a|f3a bafb|afdf edBd|f3a bafb|afdf e2de|
fefa bafb|afdf edBA|DEFA BAdB|AFEF D3:|

composer: Brendan Tonra
